icons/svg/seamark/notice_information_bg_plus.svg

<?xml version="1.0" encoding="UTF-8" standalone="no"?>
<svg
   xmlns:dc="http://purl.org/dc/elements/1.1/"
   xmlns:cc="http://creativecommons.org/ns#"
   xmlns:rdf="http://www.w3.org/1999/02/22-rdf-syntax-ns#"
   xmlns:svg="http://www.w3.org/2000/svg"
   xmlns="http://www.w3.org/2000/svg"
   xmlns:sodipodi="http://sodipodi.sourceforge.net/DTD/sodipodi-0.dtd"
   xmlns:inkscape="http://www.inkscape.org/namespaces/inkscape"
   width="320"
   height="320"
   id="svg2"
   version="1.1"
   inkscape:version="0.48.4 r9939"
   sodipodi:docname="notice_information_bg_plus.svg">
  <defs
     id="defs13">
    <inkscape:path-effect
       effect="gears"
       id="path-effect3774"
       is_visible="true"
       teeth="6"
       phi="-1.2" />
    <inkscape:path-effect
       effect="bend_path"
       id="path-effect3772"
       is_visible="false"
       bendpath="m 95.790098,316.51174 c 144.429032,-206.42506 223.313032,-11.7428 339.548092,0"
       prop_scale="1.19"
       scale_y_rel="false"
       vertical="false"
       bendpath-nodetypes="cc" />
  </defs>
  <sodipodi:namedview
     pagecolor="#ffffff"
     bordercolor="#666666"
     borderopacity="1"
     objecttolerance="10"
     gridtolerance="10"
     guidetolerance="10"
     inkscape:pageopacity="0"
     inkscape:pageshadow="2"
     inkscape:window-width="1920"
     inkscape:window-height="1004"
     id="namedview11"
     showgrid="true"
     inkscape:zoom="1.6275861"
     inkscape:cx="226.96099"
     inkscape:cy="194.94104"
     inkscape:window-x="1680"
     inkscape:window-y="0"
     inkscape:window-maximized="1"
     inkscape:current-layer="svg2"
     inkscape:snap-bbox="true"
     inkscape:object-nodes="true"
     inkscape:snap-midpoints="true"
     inkscape:snap-grids="true"
     inkscape:snap-bbox-edge-midpoints="true"
     showguides="true"
     inkscape:guide-bbox="true">
    <inkscape:grid
       type="xygrid"
       id="grid2990"
       empspacing="5"
       visible="true"
       enabled="true"
       snapvisiblegridlinesonly="true"
       spacingx="10px"
       spacingy="10px"
       dotted="false" />
    <sodipodi:guide
       orientation="1,0"
       position="55.202458,260.58927"
       id="guide3872" />
    <sodipodi:guide
       orientation="1,0"
       position="265.17816,340"
       id="guide3874" />
    <sodipodi:guide
       orientation="0,1"
       position="317.80107,264.96094"
       id="guide3876" />
    <sodipodi:guide
       orientation="0,1"
       position="325.098,54.759006"
       id="guide3878" />
  </sodipodi:namedview>
  <metadata
     id="metadata2975">image/svg+xmlen<rdf:RDF>
  <cc:Work
     rdf:about="">
    <dc:format>image/svg+xml</dc:format>
    <dc:type
       rdf:resource="http://purl.org/dc/dcmitype/StillImage" />
    <dc:title />
  </cc:Work>
</rdf:RDF>
</metadata>
  <rect
     style="opacity:1;color:#000000;fill:#dae0ff;fill-opacity:1;fill-rule:nonzero;stroke:#858585;stroke-width:0;marker:none;visibility:visible;display:inline;overflow:visible;enable-background:accumulate;stroke-opacity:1;stroke-miterlimit:4;stroke-dasharray:none"
     id="rect2988"
     width="200.50764"
     height="200.50764"
     x="59.746178"
     y="59.746178" />
  <rect
     style="color:#000000;fill:#003399;fill-opacity:1;fill-rule:nonzero;stroke:none;stroke-width:30;marker:none;visibility:visible;display:inline;overflow:visible;enable-background:accumulate"
     id="rect2988-9"
     width="180"
     height="180"
     x="70"
     y="69.999992" />
  <path
     style="opacity:0.61199999;fill:none;stroke:#373737;stroke-width:10;stroke-linecap:butt;stroke-linejoin:miter;stroke-miterlimit:4;stroke-opacity:1;stroke-dasharray:none"
     d="m 55.202458,55.03906 209.975702,0 0,210.20193 -209.975702,0 z"
     id="path3880"
     inkscape:connector-curvature="0" />
  <path
     style="color:#000000;fill:#fefefe;fill-opacity:1;fill-rule:nonzero;stroke:#000000;stroke-width:10;stroke-linecap:round;stroke-linejoin:miter;stroke-miterlimit:4;stroke-opacity:1;stroke-dasharray:none;stroke-dashoffset:0;marker:none;visibility:visible;display:inline;overflow:visible;enable-background:accumulate"
     d="m 265.33441,10.03906 c -0.0896,0 -0.15625,0.0666 -0.15625,0.15625 l 0,24.84375 -24.84375,0 c -0.0896,0 -0.15625,0.0666 -0.15625,0.15625 l 0,19.6875 c 0,0.0896 0.0666,0.15625 0.15625,0.15625 l 24.84375,0 0,24.84375 c 0,0.0896 0.0667,0.15625 0.15625,0.15625 l 19.6875,0 c 0.0896,0 0.15625,-0.0667 0.15625,-0.15625 l 0,-24.84375 24.84375,0 c 0.0896,0 0.15625,-0.0666 0.15625,-0.15625 l 0,-19.6875 c 0,-0.08965 -0.0666,-0.15625 -0.15625,-0.15625 l -24.84375,0 0,-24.84375 c 0,-0.08964 -0.0666,-0.15625 -0.15625,-0.15625 l -19.6875,0 z"
     id="rect2991"
     inkscape:connector-curvature="0" />
</svg>

<svg width="320" height="320" viewBox="0 0 320 320" fill="none" xmlns="http://www.w3.org/2000/svg">
<path d="M260.254 59.7461H59.7462V260.254H260.254V59.7461Z" fill="#DAE0FF"/>
<path d="M250 70H70V250H250V70Z" fill="#003399"/>
<path opacity="0.612" d="M55.2025 55.0391H265.178V265.241H55.2025V55.0391Z" stroke="#373737" stroke-width="10"/>
<path d="M265.334 10.0391C265.245 10.0391 265.178 10.1057 265.178 10.1953V35.0391H240.334C240.245 35.0391 240.178 35.1057 240.178 35.1953V54.8828C240.178 54.9724 240.245 55.0391 240.334 55.0391H265.178V79.8828C265.178 79.9724 265.245 80.0391 265.334 80.0391H285.022C285.112 80.0391 285.178 79.9724 285.178 79.8828V55.0391H310.022C310.112 55.0391 310.178 54.9725 310.178 54.8828V35.1953C310.178 35.1057 310.112 35.0391 310.022 35.0391H285.178V10.1953C285.178 10.1057 285.112 10.0391 285.022 10.0391H265.334V10.0391Z" fill="#FEFEFE" stroke="black" stroke-width="10" stroke-linecap="round"/>
</svg>
